X: 30187
T: Old Flail, The
R: jig
M: 6/8
K: Gmajor
|DEG GAB|deg gab|age ~g2e|dBG AGE|
DEG GAB|deg gab|age ~g2e|dBG A3:|
e2a aga|ega ega|deg ged|ged BGE|
DEG GAB|deg gab|age ~g2e|dBG A3:|

